X: 26861
T: Miners Of Wicklow, The
R: jig
M: 6/8
K: Dmajor
|:D|DFA AFA|dcB AFA|B2 E EFG|AFD D2 F|
DFA AFA|dcB AFA|B2 d ecA|d3 d2:|
|:g|~f3 fdf|e2 e efg|~f3 fdf|gfe a2 g|
~f3 fdf|e2 e ecA|Bcd ecA|d3 d2:|

